<?xml version="1.0" encoding="UTF-8"?>
<map version="1.10" tiledversion="1.11.2" orientation="orthogonal" renderorder="right-down" width="50" height="50" tilewidth="16" tileheight="16" infinite="0" nextlayerid="16" nextobjectid="165">
 <editorsettings>
  <export target="../Wizard-project/Assets/maps/map1.tmx" format="tmx"/>
 </editorsettings>
 <tileset firstgid="1" source="Water_coasts_animation.tsx"/>
 <tileset firstgid="787" source="walls_floor.tsx"/>
 <tileset firstgid="1280" source="Objects.tsx"/>
 <tileset firstgid="1496" source="Assets_source.tsx"/>
 <layer id="8" name="Tile Layer 5" width="50" height="50">
  <data encoding="csv">
0,0,0,0,0,0,0,0,0,0,0,0,0,0,0,0,0,0,0,0,0,0,0,0,0,0,0,0,0,0,0,0,0,0,0,0,0,0,0,0,0,0,0,0,0,0,0,0,0,0,
0,0,0,0,0,0,0,0,0,0,0,0,0,0,0,0,0,0,0,0,0,0,0,0,0,0,0,0,0,0,0,0,0,0,0,0,0,0,0,0,0,0,0,0,0,0,0,0,0,0,
0,0,925,925,0,0,0,0,0,0,0,0,0,0,0,0,0,0,0,0,0,0,0,0,0,0,0,0,0,0,0,0,0,0,0,0,0,0,0,925,925,0,0,0,0,0,925,925,0,0,
0,0,925,925,0,0,0,0,0,0,0,0,0,0,0,0,0,0,0,0,0,0,0,0,0,0,0,0,0,0,0,0,925,925,0,0,0,0,0,925,925,0,0,925,0,0,925,925,0,0,
0,925,925,925,925,925,925,0,0,0,0,0,0,0,0,0,0,0,0,0,0,0,0,0,0,0,0,0,0,925,925,925,925,925,0,0,925,0,0,925,925,0,0,925,0,0,925,925,0,0,
0,925,925,925,925,925,925,0,0,0,925,925,925,925,925,925,0,0,925,925,925,925,925,925,925,925,925,925,925,925,925,925,925,925,925,925,925,925,925,925,925,925,925,925,925,925,925,925,925,925,
0,925,925,925,925,925,925,925,925,925,925,925,925,925,925,925,0,0,925,925,925,925,925,925,925,925,925,925,925,925,925,925,925,925,925,925,925,0,0,0,0,0,0,925,925,0,0,0,0,0,
0,925,925,925,925,925,925,925,925,925,925,925,925,925,925,925,925,925,925,925,925,925,925,925,925,925,925,925,925,925,925,925,925,925,925,925,925,0,0,0,0,0,0,925,925,0,0,0,0,0,
0,925,925,925,925,925,925,925,925,925,925,925,925,925,925,925,925,925,925,925,925,925,925,925,925,925,925,925,925,925,925,925,925,925,925,925,925,0,0,0,0,0,0,925,925,0,0,0,0,0,
0,925,925,925,925,925,925,925,925,925,925,925,925,925,925,925,925,925,925,925,925,925,925,925,925,925,925,925,925,925,925,925,925,925,925,925,925,0,925,925,925,925,925,925,925,925,925,925,925,925,
0,925,925,925,925,925,925,925,925,925,925,925,925,0,0,0,925,925,925,925,925,925,0,0,0,925,925,925,925,925,925,925,925,925,925,925,925,0,925,925,925,925,925,925,925,925,925,823,823,823,
0,925,925,925,925,925,925,925,925,925,925,925,925,0,0,0,0,0,925,925,0,0,0,0,0,925,925,925,925,925,925,925,925,925,925,925,925,0,925,925,925,925,925,925,925,925,925,823,823,823,
0,925,925,925,925,925,925,925,925,925,925,925,925,0,0,0,0,0,925,925,0,0,0,0,0,925,925,925,925,925,925,925,925,925,925,925,925,0,925,925,925,925,925,925,925,925,925,823,823,823,
0,925,925,925,925,925,925,925,925,925,925,925,925,0,0,0,0,0,925,925,0,0,0,0,0,925,925,925,925,925,925,925,925,925,925,925,925,0,925,925,925,925,925,925,925,925,925,823,823,823,
0,925,925,925,925,925,925,925,925,925,925,925,925,925,0,925,925,925,925,925,925,925,925,0,925,925,925,925,925,925,925,925,925,925,925,925,925,0,925,925,925,925,925,823,823,823,823,823,823,823,
0,925,925,925,925,925,925,925,925,925,925,925,925,925,0,925,925,925,925,925,925,925,925,0,925,925,925,925,925,925,925,925,925,925,925,925,925,0,925,925,925,925,925,823,823,823,823,823,823,823,
0,925,925,925,925,925,925,925,925,925,925,925,925,925,0,925,925,925,925,925,925,925,925,0,925,925,925,925,925,925,925,925,925,925,925,925,925,0,925,925,925,925,925,823,823,823,823,823,823,823,
0,925,925,925,925,925,925,925,925,925,925,925,925,925,0,925,925,925,925,925,925,925,925,0,925,925,925,925,925,925,925,925,925,925,925,925,823,823,823,823,823,823,823,823,823,823,823,823,823,823,
0,925,925,925,925,925,925,925,925,925,925,925,925,0,0,0,925,925,925,925,925,925,0,0,0,925,925,925,925,925,925,925,925,925,925,925,823,823,823,823,823,823,823,823,823,823,823,823,823,823,
0,925,925,925,925,925,925,925,925,925,925,925,925,0,0,0,0,0,925,925,0,0,0,0,0,925,925,925,925,925,925,925,925,925,925,925,823,823,823,823,823,823,823,823,823,823,823,823,823,823,
0,925,925,925,925,925,925,925,925,925,925,925,925,0,0,0,0,0,925,925,0,0,0,0,0,925,925,925,925,925,925,925,925,925,925,0,823,823,823,823,823,823,823,823,823,823,823,823,823,823,
0,925,925,925,925,925,925,925,925,925,925,925,925,0,0,0,0,0,925,925,0,0,0,0,0,925,925,925,925,925,925,925,925,1037,1037,1037,823,823,823,823,823,823,823,823,823,823,823,823,823,823,
0,925,925,925,925,925,925,925,925,925,925,925,925,1037,1037,1037,1037,925,925,925,925,1037,1037,1037,1037,925,925,925,925,925,1037,1037,1037,1037,1037,1037,823,823,1037,823,823,1037,823,823,823,823,823,823,823,823,
0,925,925,925,925,925,925,925,925,925,925,925,925,925,925,925,925,925,925,925,925,925,925,925,925,925,925,925,925,925,1037,1037,1037,1037,1037,1037,1037,1037,1037,1037,1037,1037,1037,1037,1037,1037,1037,1037,1037,1037,
0,925,925,925,925,925,925,925,925,925,925,925,925,925,925,925,925,925,925,925,925,925,925,925,925,925,925,925,925,925,1037,1037,1037,1037,1037,1037,1037,1037,1037,1037,1037,1037,1037,1037,1037,1037,1037,1037,1037,1037,
0,925,925,925,925,925,925,925,925,925,925,925,925,925,925,925,925,925,925,925,925,925,925,925,925,925,925,925,925,925,1037,1037,1037,1037,1037,1037,1037,1037,1037,1037,1037,1037,1037,1037,1037,1037,1037,1037,1037,1037,
0,925,925,925,925,925,925,925,925,925,925,925,925,925,925,925,925,925,925,925,925,925,925,925,925,925,925,925,925,925,1037,1037,1037,1037,1037,1037,1037,1037,1037,1037,1037,1037,1037,1037,1037,1037,1037,1037,1037,1037,
0,925,925,925,925,925,925,925,925,925,925,925,925,925,925,925,925,925,925,925,925,925,925,925,925,925,925,925,925,925,925,925,925,925,0,1037,1037,1037,1037,1037,1037,1037,1037,1037,1037,1037,1037,1037,1037,1037,
0,925,925,925,925,925,925,925,925,925,925,925,925,925,925,925,925,925,925,925,925,925,925,925,925,925,925,925,925,925,925,925,925,925,0,0,0,1037,1037,1037,1037,1037,1037,1037,1037,1037,1037,1037,1037,1037,
0,925,925,925,925,925,925,925,925,925,925,925,925,925,925,925,925,925,925,925,925,925,925,925,925,925,925,925,0,0,0,0,0,0,0,0,0,0,1037,1037,0,0,925,925,925,925,925,925,925,925,
0,925,925,925,925,925,925,925,925,925,925,925,925,925,925,925,925,925,925,925,925,925,925,925,925,925,925,925,0,0,0,0,0,0,0,0,0,0,1037,1037,0,0,925,823,823,823,823,823,823,823,
925,0,823,0,925,925,0,823,0,925,925,0,823,0,925,925,925,925,925,925,925,925,925,925,925,925,925,925,0,0,0,0,0,0,0,0,0,0,1037,1037,0,0,925,823,823,823,823,823,823,823,
925,925,925,925,925,925,925,925,925,925,925,925,925,925,925,925,925,925,925,925,925,925,925,925,925,925,925,925,925,925,925,925,925,925,925,0,1037,1037,1037,1037,1037,1037,925,823,823,823,823,823,823,823,
925,925,925,925,925,925,925,925,925,925,925,925,925,925,925,925,925,925,925,925,925,925,925,925,925,925,925,925,925,925,925,925,925,925,925,0,1037,1037,1037,1037,1037,1037,925,823,823,823,823,823,823,823,
925,925,925,925,925,925,925,925,925,925,925,925,925,925,925,925,925,1037,1037,1037,1037,925,925,925,925,925,925,925,925,925,925,925,925,925,925,0,1037,1037,1037,1037,1037,1037,925,823,823,823,823,823,823,823,
925,925,925,925,925,925,925,925,925,925,925,925,925,925,925,925,925,925,925,925,925,925,925,925,925,925,925,925,925,925,925,925,925,925,925,0,1037,1037,1037,1037,1037,1037,925,823,823,823,823,823,823,823,
925,0,823,0,925,925,0,823,0,925,925,0,823,0,925,925,925,925,925,925,925,925,925,925,925,925,925,925,925,925,925,925,925,0,0,0,0,0,1037,1037,1037,1037,925,823,823,823,823,823,823,823,
925,925,925,925,925,925,925,925,925,925,925,925,925,925,925,925,925,925,925,925,925,925,925,925,925,925,925,925,925,925,925,925,925,0,0,0,0,0,1037,1037,1037,1037,925,823,823,823,823,823,823,823,
925,925,925,925,925,925,925,925,925,925,925,925,925,925,925,925,925,925,925,925,925,925,925,925,925,925,925,925,925,925,925,925,925,0,0,0,0,0,925,925,925,925,925,823,823,823,823,823,823,823,
0,1037,1037,1037,925,925,925,925,925,925,0,1037,1037,1037,925,925,925,925,925,925,925,925,925,925,925,925,925,925,925,925,925,925,925,925,925,0,925,925,925,925,925,925,925,823,823,823,823,823,823,823,
925,925,925,925,0,1037,1037,1037,1037,1037,925,925,925,1037,925,925,925,925,925,1037,1037,1037,1037,1037,1037,1037,1037,1037,925,925,925,925,925,925,925,0,925,925,925,925,925,925,925,823,823,823,823,823,823,823,
1037,925,925,1037,1037,925,1037,1037,925,1037,1037,925,925,1037,925,925,925,925,925,1037,1037,1037,1037,1037,1037,1037,1037,1037,925,925,925,925,925,925,925,925,925,925,925,925,925,925,925,823,823,823,823,823,823,823,
925,925,925,925,925,925,925,925,925,925,925,925,925,925,925,925,925,925,925,1037,1037,1037,1037,1037,1037,1037,1037,1037,925,925,925,925,925,925,925,925,925,925,925,925,925,925,925,823,823,823,823,823,823,823,
925,925,925,925,925,925,925,925,925,925,925,925,925,925,925,925,925,925,925,1037,1037,1037,1037,1037,1037,1037,1037,1037,925,925,925,925,925,925,925,925,925,925,925,925,925,925,925,925,925,925,925,925,925,925,
925,925,925,925,925,925,925,925,925,925,925,925,925,925,925,925,925,925,925,1037,1037,1037,1037,1037,1037,1037,1037,1037,925,925,925,925,925,925,925,925,925,925,925,925,925,925,925,925,925,925,925,925,925,925,
925,925,925,925,925,1037,925,925,925,925,925,925,925,925,925,925,925,925,925,1037,1037,1037,1037,1037,1037,1037,1037,1037,925,925,925,925,925,925,925,925,925,925,925,925,925,925,925,925,925,925,925,925,925,925,
925,925,925,0,0,0,0,0,0,925,925,925,925,925,925,925,925,925,925,1037,1037,1037,1037,1037,1037,1037,1037,1037,925,925,925,925,925,925,925,925,925,925,925,925,925,925,925,925,925,925,925,925,925,925,
925,925,925,823,823,823,823,823,823,925,925,925,925,925,925,925,925,925,925,1037,1037,1037,1037,1037,1037,1037,1037,1037,925,925,925,925,925,925,925,925,925,925,925,925,925,925,925,925,925,925,925,925,925,925,
925,925,925,823,823,823,823,823,823,925,925,925,925,925,925,925,925,925,925,1037,1037,1037,1037,1037,1037,1037,1037,1037,925,925,925,925,925,925,925,925,925,925,925,925,925,925,925,925,925,925,925,925,925,925,
925,925,925,823,823,823,823,823,823,925,925,925,925,925,925,925,925,925,925,925,925,925,925,925,925,925,925,925,925,925,925,925,925,925,925,925,925,925,925,925,925,925,925,925,925,925,925,925,925,925
</data>
 </layer>
 <layer id="2" name="floor" width="50" height="50">
  <data encoding="csv">
823,823,823,823,823,823,823,823,823,823,823,823,823,823,823,823,823,823,823,823,823,823,823,823,823,823,823,823,823,823,823,823,823,823,823,823,823,823,823,823,925,925,925,925,925,925,925,925,925,925,
925,925,925,925,925,925,925,925,823,823,823,823,823,823,823,823,823,823,823,823,823,823,823,823,823,823,823,823,823,823,823,823,823,823,823,823,823,823,823,823,925,925,925,925,925,925,925,925,925,925,
925,925,925,925,925,925,925,925,823,925,925,925,925,925,925,925,925,809,840,840,840,840,840,840,840,840,840,840,925,925,925,925,925,925,925,925,925,925,925,925,925,925,925,925,925,925,925,925,925,925,
925,925,925,925,925,925,925,925,925,925,925,925,925,925,925,925,925,816,857,857,857,857,857,857,857,857,857,857,925,925,925,925,925,925,925,925,925,925,925,925,925,925,925,925,925,925,925,925,925,925,
925,925,925,925,925,925,925,925,925,925,925,925,925,925,925,925,925,833,874,874,874,874,874,874,874,874,874,874,925,925,925,925,925,925,925,925,925,925,925,925,925,925,925,925,925,925,925,925,925,925,
925,925,925,925,925,925,925,925,925,925,925,925,925,925,925,925,925,850,925,925,925,925,925,925,925,925,925,925,925,925,925,925,925,925,925,925,925,925,925,925,925,925,925,925,925,925,925,925,925,925,
925,925,925,925,925,925,925,925,925,925,925,925,925,925,925,925,925,925,925,925,925,925,925,925,925,925,925,925,925,925,925,925,925,925,925,925,925,925,925,925,925,925,925,925,925,925,925,925,925,925,
925,925,925,925,925,925,925,925,925,925,925,925,925,925,925,925,925,925,925,925,925,925,925,925,925,925,925,925,925,925,925,925,925,925,925,925,925,925,925,925,925,925,0,0,0,0,925,925,0,0,
925,925,925,925,925,925,925,925,925,925,925,925,925,925,925,925,925,925,925,925,925,925,925,925,925,925,925,925,925,925,925,925,925,925,925,925,925,925,925,925,925,925,925,925,925,925,925,925,925,925,
925,925,925,925,925,925,925,925,925,925,925,925,925,925,925,925,925,925,925,925,925,925,925,925,925,925,925,925,925,925,925,925,925,925,925,925,925,925,925,925,925,925,925,925,925,925,925,925,925,925,
824,925,925,925,925,925,925,925,925,925,925,925,925,925,925,925,925,925,925,925,925,925,925,925,925,925,925,925,925,925,925,925,925,925,925,925,925,925,925,925,925,925,925,925,925,925,925,0,0,0,
824,925,925,925,925,925,925,925,925,925,925,925,925,925,925,925,925,925,925,925,925,925,925,925,925,925,925,925,925,925,925,925,925,925,925,925,925,925,925,925,925,925,925,925,925,925,925,0,0,0,
824,925,925,925,925,925,925,925,925,925,925,925,925,925,925,925,925,925,925,925,925,925,925,925,925,925,925,925,925,925,925,925,925,925,925,925,925,925,925,925,925,925,925,925,925,925,925,0,0,0,
824,925,925,925,925,925,925,925,925,925,925,925,925,912,913,925,925,925,925,925,925,925,925,911,912,925,925,925,925,925,925,925,925,925,925,925,925,925,925,925,925,925,925,925,925,925,925,0,0,0,
824,925,925,925,925,925,925,925,925,925,925,925,925,925,930,925,925,925,925,925,925,925,925,928,925,925,925,925,925,925,925,925,925,925,925,925,925,925,925,925,925,925,925,925,925,925,925,0,0,0,
824,925,925,925,925,925,925,925,925,925,925,925,925,925,930,925,925,925,925,925,925,925,925,928,925,925,925,925,925,925,925,925,925,925,925,925,925,925,925,925,925,925,925,0,0,0,0,0,0,0,
824,925,925,925,925,925,925,925,925,925,925,925,925,925,930,925,925,925,925,925,925,925,925,928,925,925,925,925,925,925,925,925,925,925,925,925,925,925,925,925,925,925,925,0,0,0,0,0,0,0,
824,925,925,925,925,925,925,925,925,925,925,925,925,925,930,925,925,925,925,925,925,925,925,928,925,925,925,925,925,925,925,925,925,925,925,925,0,0,0,0,0,0,0,0,0,0,0,0,0,0,
824,925,925,925,925,925,925,925,925,925,925,925,925,925,925,925,925,925,925,925,925,925,925,925,925,925,925,925,925,925,925,925,925,925,925,925,0,0,0,0,0,0,0,0,0,823,823,823,0,0,
824,925,925,925,925,925,925,925,925,925,925,925,925,925,925,925,925,925,925,925,925,925,925,925,925,925,925,925,925,925,925,925,925,925,911,912,913,0,0,0,0,0,0,0,0,0,0,0,0,0,
824,925,925,925,925,925,925,925,925,925,925,925,925,925,925,925,925,925,925,925,925,925,925,925,925,925,925,925,925,925,925,925,925,925,926,929,930,0,0,0,0,0,0,0,0,0,0,0,0,0,
824,925,925,925,925,925,925,925,925,925,925,925,925,912,912,912,899,900,925,925,898,899,912,912,912,925,925,925,925,911,899,899,899,899,943,474,917,0,0,0,0,0,0,0,0,0,0,0,0,0,
824,925,925,925,925,925,925,925,925,925,925,925,925,929,929,929,916,924,925,925,926,916,929,929,929,925,925,925,925,926,916,916,916,916,960,0,934,0,0,0,0,0,0,0,0,0,0,0,0,0,
824,925,925,925,925,925,925,925,925,925,925,925,925,925,925,925,925,924,925,925,926,925,925,925,925,925,925,925,925,969,970,0,0,0,0,0,0,0,0,0,0,0,0,0,0,0,0,0,0,0,
824,925,925,925,925,925,925,925,925,925,925,925,925,925,925,925,925,924,925,925,926,925,925,925,925,925,925,925,925,986,987,0,0,0,0,0,0,0,0,0,0,0,0,0,0,0,0,0,0,0,
824,925,925,925,925,925,925,925,925,925,925,925,925,925,925,925,925,924,925,925,926,925,925,925,925,925,925,925,925,926,529,0,0,0,0,0,0,0,0,0,0,0,0,0,0,0,0,0,0,0,
824,925,925,925,925,925,925,925,925,925,925,925,925,925,925,925,925,924,925,925,926,925,925,925,925,925,925,925,925,945,908,908,908,908,908,909,0,0,0,0,0,0,0,0,0,0,0,0,0,0,
824,925,925,925,925,925,925,925,925,925,925,925,925,925,925,925,925,924,925,925,926,925,925,925,925,925,925,925,925,925,925,925,925,925,925,926,0,0,0,0,0,0,0,0,0,0,0,0,0,0,
824,925,925,925,925,925,925,925,925,925,925,925,925,925,925,925,925,924,925,925,926,925,925,925,925,925,925,925,925,925,925,925,925,925,925,925,1037,0,0,0,1037,0,907,908,908,908,908,908,908,908,
1167,925,925,925,925,925,925,925,925,925,925,925,925,925,925,925,925,924,925,925,926,925,925,925,925,925,925,925,925,925,925,925,925,925,925,925,1037,1037,0,0,1037,1037,924,925,925,925,925,925,925,925,
1184,911,912,913,925,925,911,912,913,925,925,911,912,913,925,925,925,924,925,925,926,925,925,925,925,925,925,925,925,925,925,925,925,925,925,925,925,1037,0,0,1037,1037,924,925,925,925,925,925,925,925,
0,928,929,930,925,925,928,929,930,925,925,928,929,930,925,925,925,924,925,925,926,925,925,925,925,925,925,925,925,925,925,925,925,925,925,925,925,1037,0,0,1037,1037,924,925,925,925,925,925,925,925,
0,945,946,947,925,925,945,946,947,925,925,945,946,947,925,925,925,924,925,925,926,925,925,925,925,925,925,925,925,925,925,925,925,925,925,925,0,0,0,0,0,0,924,925,925,925,925,925,925,925,
0,925,925,925,925,925,925,925,925,925,925,925,925,925,925,925,925,941,967,968,943,925,925,925,925,925,925,925,925,925,925,925,925,925,925,925,0,0,0,0,0,0,924,925,925,925,925,925,925,925,
0,925,925,925,925,925,925,925,925,925,925,925,925,925,925,925,925,958,984,985,960,925,925,925,925,925,925,925,925,925,925,925,925,925,925,925,0,0,0,0,0,0,924,925,925,925,925,925,925,925,
0,911,912,913,925,925,911,912,913,925,925,911,912,913,925,925,925,925,925,925,925,925,925,925,925,925,925,925,925,925,925,925,925,925,925,925,0,0,0,0,0,0,924,925,925,925,925,925,925,925,
0,928,929,930,925,925,928,929,930,925,925,928,929,930,925,925,925,925,925,925,925,925,925,925,925,925,925,925,925,925,925,925,925,925,925,925,925,925,0,0,0,0,924,925,925,925,925,925,925,925,
925,945,946,947,925,925,945,946,947,925,925,945,946,947,925,925,925,925,925,925,925,925,925,925,925,925,925,925,925,925,925,925,925,925,925,925,925,925,965,966,0,0,924,925,925,925,925,925,925,925,
898,967,968,900,925,925,925,925,925,925,898,899,899,900,925,925,925,925,925,925,925,925,925,925,925,925,925,925,925,925,925,925,925,925,925,925,925,925,982,983,946,946,947,925,925,925,925,925,925,925,
901,984,985,904,898,899,913,898,899,913,901,902,903,904,925,925,925,925,925,925,925,925,925,925,925,925,925,925,925,925,925,925,925,925,925,925,925,925,925,925,925,925,925,925,925,925,925,925,925,925,
918,925,925,921,915,916,941,943,916,941,918,925,925,921,967,968,900,925,925,907,908,908,908,908,908,908,908,909,925,925,925,925,925,925,925,925,925,925,925,925,925,925,925,925,925,925,925,925,925,925,
935,925,925,938,932,925,958,960,925,958,935,925,925,938,984,985,904,925,925,924,907,908,908,908,908,908,909,926,925,925,925,925,925,925,925,925,925,925,925,925,925,925,925,925,925,925,925,925,925,925,
925,925,925,925,925,925,925,925,925,925,925,925,925,925,925,925,904,925,925,924,924,925,907,908,909,925,926,926,925,925,925,925,925,925,925,925,925,925,925,925,925,925,925,925,925,925,925,925,925,925,
925,925,925,925,925,925,925,925,925,925,925,925,925,925,925,925,904,925,925,924,924,925,941,992,943,925,926,926,925,925,925,925,925,880,881,882,883,884,885,886,887,881,882,883,884,885,886,887,925,925,
925,925,925,925,925,925,925,925,925,925,925,925,925,925,925,925,904,925,925,924,924,925,958,1009,960,925,926,926,925,925,925,0,0,897,0,0,0,0,0,0,0,0,0,0,0,0,0,0,0,925,
925,925,911,912,912,912,912,912,912,913,925,925,925,925,925,925,904,925,925,924,941,942,942,967,968,942,943,926,925,925,925,911,942,942,942,942,942,967,968,942,942,942,967,968,942,942,942,942,942,942,
925,925,928,929,929,929,929,929,929,930,925,925,925,925,925,925,904,925,925,924,958,959,959,984,985,959,960,926,925,925,925,926,959,959,959,959,959,984,985,959,959,959,984,985,959,959,959,959,0,0,
925,925,928,641,641,641,641,641,641,930,925,925,925,925,925,925,904,925,925,941,942,942,942,967,968,942,942,943,925,925,925,901,0,0,0,0,0,0,0,0,0,0,0,0,0,0,0,0,0,0,
925,925,928,641,641,641,641,641,641,930,925,925,925,925,925,925,904,925,925,925,925,925,925,925,925,925,925,960,925,925,925,969,970,0,0,0,0,0,0,0,0,0,0,0,0,965,966,0,0,0,
925,925,928,641,641,641,641,641,641,930,925,925,925,925,925,925,904,925,925,925,925,925,925,925,925,925,925,925,925,925,925,986,987,0,0,0,0,0,0,0,0,0,0,0,907,982,983,908,909,0
</data>
 </layer>
 <layer id="6" name="block" width="50" height="50">
  <data encoding="csv">
0,0,0,0,0,0,0,0,0,0,0,0,0,0,0,0,0,0,0,0,0,0,0,0,0,0,0,0,0,0,0,0,0,0,0,0,0,0,809,840,840,811,823,823,823,823,823,823,0,0,
809,810,840,840,810,810,810,811,823,823,823,823,823,823,823,823,823,823,823,823,823,823,823,823,823,0,0,0,0,0,0,809,810,810,811,809,810,811,816,817,818,819,813,814,815,816,817,0,0,0,
826,1111,1111,1111,1111,1111,1111,822,823,809,810,840,840,840,840,840,811,809,840,840,840,840,840,840,840,840,840,840,830,831,832,833,834,835,836,830,831,839,841,0,0,839,830,831,832,833,0,0,836,0,
826,1111,1111,1111,1111,1111,1111,839,840,841,857,857,857,857,857,857,822,826,857,857,857,857,857,857,857,857,857,857,847,848,849,850,851,852,853,847,848,849,850,851,852,853,858,0,849,850,0,0,853,0,
826,0,0,0,0,0,0,856,857,858,857,874,874,874,874,874,839,841,874,874,874,874,874,874,874,874,874,874,864,865,866,867,868,869,870,864,865,866,867,868,869,870,864,865,866,867,868,869,870,864,
826,0,0,0,0,0,0,873,874,875,0,0,0,0,0,0,856,858,0,0,0,0,0,0,0,0,0,0,0,0,0,0,0,0,0,0,0,0,0,0,0,0,0,0,0,0,0,0,0,0,
826,0,0,0,0,0,0,0,0,0,0,0,0,0,0,0,873,875,0,0,0,0,0,0,0,0,0,0,0,0,0,0,0,0,0,0,0,0,0,0,0,0,0,0,0,0,0,0,0,0,
826,0,0,0,0,0,0,0,0,0,0,0,0,0,0,0,0,0,0,0,0,0,0,0,0,0,0,0,0,0,0,0,0,0,0,0,0,0,0,0,0,0,0,0,0,0,0,0,0,0,
826,0,0,0,0,0,0,0,0,0,0,0,0,0,0,0,0,0,0,0,0,0,0,0,0,0,0,0,0,0,0,0,0,0,0,0,0,0,0,0,0,0,0,0,0,0,0,0,0,0,
826,0,0,0,0,0,0,0,0,0,0,0,0,0,0,0,0,0,0,0,0,0,0,0,0,0,0,0,0,0,0,0,0,0,0,0,0,0,0,0,0,0,0,0,0,0,0,0,0,0,
1150,0,0,0,0,0,0,0,0,0,0,0,0,1069,1070,1071,0,0,0,0,0,0,1069,1070,1071,0,0,0,0,0,0,0,0,0,0,0,0,0,0,0,0,0,0,0,0,0,0,805,806,806,
1150,0,0,0,0,0,0,0,0,0,0,0,0,1086,1087,1088,0,0,0,0,0,0,1086,1087,1088,0,0,0,0,0,0,0,0,0,0,0,0,0,0,0,0,0,0,0,0,0,0,822,823,823,
1150,0,0,0,0,0,0,0,0,0,0,0,0,1103,1104,1105,0,0,0,0,0,0,1103,1104,1105,0,0,0,0,0,0,0,0,0,0,0,0,0,0,0,0,0,0,0,0,0,0,822,823,823,
1150,0,0,0,0,0,0,0,0,0,0,0,0,1120,1121,1122,0,0,0,0,0,0,1120,1121,1122,0,0,0,0,0,0,0,0,0,0,0,0,0,0,0,0,0,0,0,0,0,0,822,823,823,
1150,0,0,0,0,0,0,0,0,0,0,0,0,0,0,0,0,0,0,0,0,0,0,0,0,0,0,0,0,0,0,0,0,0,0,0,0,0,0,0,0,0,0,805,806,806,806,862,823,823,
1150,0,0,0,0,0,0,0,0,0,0,0,0,0,0,0,0,0,0,0,0,0,0,0,0,0,0,0,0,0,0,0,0,0,0,0,0,0,0,0,0,0,0,822,809,810,810,810,811,823,
1150,0,0,0,0,0,0,0,0,0,0,0,0,0,0,0,0,0,0,0,0,0,0,0,0,0,0,0,0,0,0,0,0,0,0,0,0,0,0,0,0,0,0,845,826,827,827,827,828,823,
1150,0,0,0,0,0,0,0,0,0,0,0,0,0,0,0,0,0,0,0,0,0,0,0,0,0,0,0,0,0,0,0,0,0,0,0,805,806,806,806,806,806,806,862,843,827,827,827,845,823,
1150,0,0,0,0,0,0,0,0,0,0,0,0,1069,1070,1071,0,0,0,0,0,0,1069,1070,1071,0,0,0,0,0,0,0,0,0,0,0,822,823,823,823,823,823,823,823,860,861,861,861,862,823,
1150,0,0,0,0,0,0,0,0,0,0,0,0,1086,840,1088,0,0,0,0,0,0,1086,840,1088,0,0,0,0,0,0,0,0,0,0,0,822,813,814,815,813,814,815,823,823,823,823,823,823,823,
1150,0,0,0,0,0,0,0,0,0,0,0,0,1103,857,1105,0,0,0,0,0,0,1103,857,1105,0,0,0,0,0,0,0,0,0,0,0,839,841,831,832,830,831,832,840,840,840,840,840,840,840,
1150,0,0,0,0,0,0,0,0,0,0,0,0,1120,874,1122,0,0,0,0,0,0,1120,874,1122,0,0,0,0,0,0,0,0,0,0,0,856,858,848,849,847,848,849,857,857,857,857,857,857,857,
1150,0,0,0,0,0,0,0,0,0,0,0,0,0,0,0,0,0,0,0,0,0,0,0,0,0,0,0,0,0,0,0,0,0,0,0,873,875,865,866,864,865,866,874,874,874,874,874,874,874,
1150,0,0,0,0,0,0,0,0,0,0,0,0,0,0,0,0,0,0,0,0,0,0,0,0,0,0,0,0,0,0,0,0,0,0,0,0,0,0,0,0,0,0,0,0,0,0,0,0,0,
1150,0,0,0,0,0,0,0,0,0,0,0,0,0,0,0,0,0,0,0,0,0,0,0,0,0,0,0,0,0,0,0,0,0,0,0,0,0,0,0,0,0,0,0,0,0,0,0,0,0,
1150,0,0,0,0,0,0,0,0,0,0,0,0,0,0,0,0,0,0,0,0,0,0,0,0,0,0,0,0,0,0,0,0,0,0,0,0,0,0,0,0,0,0,0,0,0,0,0,0,0,
1150,0,0,0,0,0,0,0,0,0,0,0,0,0,0,0,0,0,0,0,0,0,0,0,0,0,0,0,0,0,0,0,0,0,0,0,0,0,0,0,0,0,0,0,0,0,0,0,0,0,
1150,0,0,0,0,0,0,0,0,0,0,0,0,0,0,0,0,0,0,0,0,0,0,0,0,0,0,0,0,0,0,0,0,0,0,0,0,0,0,0,0,0,0,0,0,0,0,0,0,0,
1150,0,0,0,0,0,0,0,0,0,0,0,0,0,0,0,0,0,0,0,0,0,0,0,0,0,0,0,0,0,0,0,0,0,1069,1070,1071,0,0,0,0,0,0,0,0,0,0,0,0,0,
1167,0,0,0,0,0,0,0,0,0,0,0,0,0,0,0,0,0,0,0,0,0,0,0,0,0,0,1093,1096,1096,1096,1096,1096,1096,1086,1087,1088,1096,1218,1219,1096,1096,1097,0,0,0,0,0,0,0,
1184,0,0,0,0,0,0,0,0,0,0,0,0,0,0,0,0,0,0,0,0,0,0,0,0,0,0,1110,1111,1111,1111,1111,1111,1111,1103,1104,1105,1113,1235,1236,1113,1113,1114,0,0,805,1070,1070,1070,1070,
0,0,0,0,0,0,0,0,0,0,0,0,0,0,0,0,0,0,0,0,0,0,0,0,0,0,0,1127,1128,1128,1128,1128,1128,1128,1120,1121,1122,1130,1252,1253,1130,1130,1131,0,0,822,823,823,823,823,
0,0,0,0,0,0,0,0,0,0,0,0,0,0,0,0,0,0,0,0,0,0,0,0,0,0,0,0,0,0,0,0,0,0,0,1078,0,0,0,0,0,0,0,0,0,822,810,810,810,810,
0,0,0,0,0,0,0,0,0,0,0,0,0,0,0,0,0,0,0,0,0,0,0,0,0,0,0,0,0,0,0,0,0,0,0,1078,0,0,0,0,0,0,0,0,0,822,827,827,827,827,
0,0,0,0,0,0,0,0,0,0,0,0,0,0,0,0,0,0,0,0,0,0,0,0,0,0,0,0,0,0,0,0,0,0,0,1078,0,0,0,0,0,0,0,0,0,822,844,844,844,844,
0,0,0,0,0,0,0,0,0,0,0,0,0,0,0,0,0,0,0,0,0,0,0,0,0,0,0,0,0,0,0,0,0,0,0,1078,0,0,0,0,0,0,0,0,0,822,810,810,810,810,
0,0,0,0,0,0,0,0,0,0,0,0,0,0,0,0,0,0,0,0,0,0,0,0,0,0,0,0,0,0,0,0,0,0,0,1146,0,0,0,0,0,0,0,0,0,822,827,827,827,827,
0,0,0,0,0,0,0,0,0,0,0,0,0,0,0,0,0,0,0,0,0,0,0,0,0,0,0,0,0,0,0,0,0,0,0,1163,0,0,0,0,0,0,0,0,0,822,844,844,844,844,
0,0,0,0,0,0,0,0,0,0,0,0,0,0,0,0,0,0,0,0,0,0,0,0,0,0,0,0,0,0,0,0,0,0,0,1180,908,908,908,0,0,0,0,0,0,822,861,861,861,861,
0,0,0,0,0,0,0,0,0,0,0,0,0,0,0,0,0,0,0,0,0,0,0,0,0,0,0,0,0,0,0,0,0,0,0,0,0,0,0,0,0,0,0,0,0,822,823,823,823,823,
0,0,0,0,0,0,0,0,0,0,0,0,0,0,0,0,0,0,0,0,0,0,0,0,0,0,0,0,0,0,0,0,0,0,0,0,0,0,0,0,0,0,0,0,0,839,840,840,840,840,
0,0,0,0,0,0,0,0,0,0,0,0,0,0,0,0,0,0,0,0,0,0,0,0,0,0,0,0,0,0,0,0,0,0,0,0,0,0,0,0,0,0,0,0,0,856,857,857,857,858,
0,0,0,0,0,0,0,0,0,0,0,0,0,0,0,0,0,0,0,0,0,0,0,0,0,0,0,0,0,0,0,0,0,0,0,0,0,0,0,0,0,0,0,0,0,873,874,874,874,875,
0,0,0,0,0,0,0,0,0,0,0,0,0,0,0,0,0,0,0,0,0,0,0,0,0,0,0,0,0,0,0,0,0,0,0,0,0,0,0,0,0,0,0,0,0,0,0,0,0,0,
0,0,0,0,0,0,0,0,0,0,0,0,0,0,0,0,0,0,0,0,0,0,0,0,0,0,0,0,0,0,0,0,0,0,0,0,0,0,0,0,0,0,0,0,0,0,0,0,0,0,
0,0,0,0,0,0,0,0,0,0,0,0,0,0,0,0,0,0,0,924,0,942,942,942,942,0,0,0,0,0,0,0,0,0,0,0,0,0,0,0,0,0,0,0,0,0,0,0,0,0,
0,0,0,0,0,0,0,0,0,0,0,0,0,0,0,0,0,0,0,0,0,0,0,0,0,0,0,0,0,0,0,0,0,0,0,0,0,0,0,0,0,0,0,0,0,0,0,0,0,0,
0,0,0,0,0,0,0,0,0,0,0,0,0,0,0,0,0,0,0,0,0,0,0,0,0,0,0,943,0,0,0,0,0,0,0,0,0,0,0,0,0,0,0,0,0,0,0,0,0,0,
0,0,0,0,0,0,0,0,0,0,0,0,0,0,0,0,0,0,0,958,959,959,959,984,985,959,959,960,0,0,0,0,0,0,0,0,0,0,0,0,0,0,0,0,0,0,0,0,0,0,
0,0,0,0,0,0,0,0,0,0,0,0,0,0,0,0,0,0,0,0,0,0,0,0,0,0,0,0,0,0,0,0,0,0,0,0,0,0,0,0,0,0,0,0,0,0,0,0,0,0
</data>
 </layer>
 <layer id="1" name="Walls" width="50" height="50">
  <data encoding="csv">
0,0,0,0,0,0,0,0,0,0,0,0,0,0,0,0,0,0,0,0,0,0,0,0,0,0,0,0,0,0,0,0,0,0,0,0,0,0,0,0,0,0,0,0,0,809,810,810,811,824,
0,0,810,810,0,0,0,0,0,0,0,0,0,0,0,0,0,0,0,0,0,0,0,0,0,0,0,0,0,0,0,0,0,0,0,0,0,0,0,0,0,0,0,0,0,0,0,857,828,824,
0,1111,1233,1234,1111,1111,1111,0,0,0,0,0,0,0,0,0,0,0,0,0,0,0,0,0,0,0,0,0,0,0,0,0,0,0,0,0,0,0,0,0,0,0,0,0,0,0,0,0,0,841,
0,1128,1250,1251,1128,1128,1128,0,0,0,0,0,0,0,0,0,0,0,0,0,0,0,0,0,0,0,0,0,0,0,0,0,0,0,0,0,0,0,0,0,0,0,0,0,0,0,0,0,0,858,
0,0,0,0,0,0,0,0,0,0,0,0,0,0,0,0,0,0,0,0,0,0,0,0,0,0,0,0,0,0,0,0,0,0,0,0,0,0,0,0,0,0,0,0,0,0,0,0,0,875,
0,0,0,0,0,0,0,0,0,0,0,0,0,0,0,0,0,0,0,0,0,0,0,0,0,0,0,0,0,0,0,0,0,0,0,0,0,0,0,0,0,0,0,0,0,0,0,0,0,0,
0,0,0,0,0,0,0,0,0,0,0,0,0,0,0,0,0,0,0,0,0,0,0,0,0,0,0,0,0,0,0,0,0,0,0,0,0,1047,1094,1094,1094,1094,1094,1218,1219,1094,1094,1094,1094,1094,
0,0,0,0,0,0,0,0,0,0,0,0,0,0,0,0,0,0,0,0,0,0,0,0,0,0,0,0,0,0,0,0,0,0,0,0,0,1064,1111,1111,1111,1111,1111,1235,1236,1111,1111,1111,1111,1111,
0,0,0,0,0,0,0,0,0,0,0,0,0,0,0,0,0,0,0,0,0,0,0,0,0,0,0,0,0,0,0,0,0,0,0,0,0,1081,1128,1128,1128,1128,1128,1252,1253,1128,1128,1128,1128,1128,
0,0,0,0,0,0,0,0,0,0,0,0,0,0,0,0,0,0,0,0,0,0,0,0,0,0,0,0,0,0,0,0,0,0,0,0,0,1078,0,0,0,0,0,0,0,0,0,0,0,0,
0,0,0,0,0,0,0,0,0,0,0,0,0,0,0,0,0,0,0,0,0,0,0,0,0,0,0,0,0,0,0,0,0,0,0,0,0,1078,0,0,0,0,0,0,0,0,0,0,0,0,
0,0,0,0,0,0,0,0,0,0,0,0,0,0,0,0,1094,1094,1218,1219,1094,1094,0,0,0,0,0,0,0,0,0,0,0,0,0,0,0,1078,0,0,0,0,0,0,0,0,0,0,0,0,
0,0,0,0,0,0,0,0,0,0,0,0,0,0,0,0,1111,1111,1235,1236,1111,1111,0,0,0,0,0,0,0,0,0,0,0,0,0,0,0,1078,0,0,0,0,0,0,0,0,0,0,0,0,
0,0,0,0,0,0,0,0,0,0,0,0,0,0,0,0,1128,1128,1252,1253,1128,1128,0,0,0,0,0,0,0,0,0,0,0,0,0,0,0,1078,0,0,0,0,0,0,0,0,0,0,0,0,
0,0,0,0,0,0,0,0,0,0,0,0,0,0,1078,0,0,0,0,0,0,0,0,1078,0,0,0,0,0,0,0,0,0,0,0,0,0,1078,0,0,0,0,0,0,0,0,0,0,0,0,
0,0,0,0,0,0,0,0,0,0,0,0,0,0,1078,0,0,0,0,0,0,0,0,1078,0,0,0,0,0,0,0,0,0,0,0,0,0,1078,0,0,0,0,0,0,0,0,0,0,0,0,
0,0,0,0,0,0,0,0,0,0,0,0,0,0,1078,0,0,0,0,0,0,0,0,1078,0,0,0,0,0,0,0,0,0,0,0,0,0,1078,0,0,0,0,0,0,0,0,0,0,0,0,
0,0,0,0,0,0,0,0,0,0,0,0,0,0,1078,0,0,0,0,0,0,0,0,1078,0,0,0,0,0,0,0,0,0,0,0,0,0,0,0,0,0,0,0,0,0,0,0,0,0,0,
0,0,0,0,0,0,0,0,0,0,0,0,0,0,0,0,0,0,0,0,0,0,0,0,0,0,0,0,0,0,0,0,0,0,0,0,0,0,0,0,0,0,0,0,0,0,0,0,0,0,
0,0,0,0,0,0,0,0,0,0,0,0,0,0,0,0,1096,1096,1218,1219,1094,1094,0,0,0,0,0,0,0,0,0,0,0,0,0,0,0,0,0,0,0,0,0,0,0,0,0,0,0,0,
0,0,0,0,0,0,0,0,0,0,0,0,0,0,0,0,1113,1113,1235,1236,1111,1111,0,0,0,0,0,0,0,0,0,0,0,0,0,0,0,0,0,0,0,0,0,0,0,0,0,0,0,0,
0,0,0,0,0,0,0,0,0,0,0,0,0,0,0,0,1130,1130,1252,1253,1128,1128,0,0,0,0,0,0,0,0,0,0,0,0,0,0,0,0,0,0,0,0,0,0,0,0,0,0,0,0,
0,0,0,0,0,0,0,0,0,0,0,0,0,0,0,0,0,0,0,0,0,0,0,0,0,0,0,0,0,0,0,0,0,0,0,0,0,0,0,0,0,0,0,0,0,0,0,0,0,0,
0,0,0,0,0,0,0,0,0,0,0,0,0,0,0,0,0,0,0,0,0,0,0,0,0,0,0,0,0,0,0,0,0,0,0,0,0,0,0,0,0,0,0,0,0,0,0,0,0,0,
0,0,0,0,0,0,0,0,0,0,0,0,0,0,0,0,0,0,0,0,0,0,0,0,0,0,0,0,0,0,0,0,0,0,0,0,0,0,0,0,0,0,0,0,0,0,0,0,0,0,
0,0,0,0,0,0,0,0,0,0,0,0,0,0,0,0,0,0,0,0,0,0,0,0,0,0,0,0,0,0,0,0,0,0,0,0,0,0,0,0,0,0,0,0,0,0,0,0,0,0,
0,0,0,0,0,0,0,0,0,0,0,0,0,0,0,0,0,0,0,0,0,0,0,0,0,0,0,0,0,0,0,0,0,0,0,0,0,0,0,0,0,0,0,0,0,0,0,0,0,0,
0,0,0,0,0,0,0,0,0,0,0,0,0,0,0,0,0,0,0,0,0,0,0,0,0,0,0,0,0,0,0,0,0,0,0,0,0,0,0,0,0,0,0,0,0,0,0,0,0,0,
0,0,0,0,0,0,0,0,0,0,0,0,0,0,0,0,0,0,0,0,0,0,0,0,0,0,0,0,0,0,0,0,0,0,0,0,0,0,0,0,0,0,0,757,757,757,757,757,757,757,
0,0,0,0,0,0,0,0,0,0,0,0,0,0,0,0,0,0,0,0,0,0,0,0,0,0,0,0,1094,1094,1094,1094,1094,1094,0,0,0,0,0,0,0,0,0,786,786,786,786,786,786,786,
0,911,912,913,0,0,911,912,913,0,0,911,912,913,0,0,0,0,0,0,0,0,0,0,0,0,0,0,1111,1111,1111,1111,1111,1111,0,0,0,0,0,0,0,0,0,0,0,0,0,0,0,0,
0,928,929,930,0,0,928,929,930,0,0,928,929,930,0,0,0,0,0,0,0,0,0,0,0,0,0,0,1128,1128,1128,1128,1128,1128,0,0,0,0,0,0,0,0,924,0,0,0,0,0,0,0,
0,945,946,947,0,0,945,946,947,0,0,945,946,947,0,0,0,0,0,0,0,0,0,0,0,0,0,0,0,0,0,0,0,0,0,1078,0,0,0,0,0,0,924,0,0,0,0,0,0,0,
0,0,0,0,0,0,0,0,0,0,0,0,0,0,0,0,0,0,0,0,0,0,0,0,0,0,0,0,0,0,0,0,0,0,0,1078,0,0,0,0,0,0,924,0,0,0,0,0,0,0,
0,0,0,0,0,0,0,0,0,0,0,0,0,0,0,0,0,0,0,0,0,0,0,0,0,0,0,0,0,0,0,0,0,0,0,1078,0,0,0,0,0,0,924,0,0,0,0,0,0,0,
0,911,912,913,0,0,911,912,913,0,0,911,912,913,0,0,0,0,0,0,0,0,0,0,0,0,0,0,0,0,0,0,0,0,0,1078,0,0,0,0,0,0,924,0,0,0,0,0,0,0,
0,928,929,930,0,0,928,929,930,0,0,928,929,930,0,0,0,0,0,0,0,0,0,0,0,0,0,0,0,0,0,0,0,1093,1094,1095,1096,1097,0,0,0,0,924,0,0,0,0,0,0,0,
0,945,946,947,0,0,945,946,947,0,0,0,0,0,0,0,0,0,0,0,0,0,0,0,0,0,0,0,0,0,0,0,0,1110,1111,1112,1113,1114,0,0,0,0,924,0,0,0,0,0,0,0,
0,0,0,0,0,0,0,0,0,0,0,0,0,0,0,0,0,0,0,0,0,0,0,0,0,0,0,0,0,0,0,0,0,1127,1128,1129,1130,1131,908,908,908,908,947,0,0,0,0,0,0,0,
0,0,0,0,0,0,0,0,0,0,0,0,0,0,0,0,0,0,0,0,0,0,0,0,0,0,0,0,0,0,0,0,0,0,0,1146,0,0,0,0,0,0,0,0,0,0,0,0,0,0,
0,0,0,0,0,0,0,0,0,0,0,0,0,0,0,0,900,0,0,907,908,908,908,908,908,908,908,909,0,0,0,0,0,0,0,1163,0,0,0,0,0,0,0,0,0,0,0,0,0,0,
0,0,0,0,0,0,0,0,0,0,0,0,0,0,0,0,904,0,0,924,907,908,908,908,908,908,909,926,0,0,0,0,0,0,0,1180,0,0,0,0,0,0,0,0,0,0,0,0,0,0,
0,0,0,0,0,0,0,0,0,0,0,0,0,0,0,0,904,0,0,0,924,906,907,908,909,0,926,0,0,0,0,0,0,0,0,0,0,0,0,0,0,0,0,0,0,0,0,0,0,0,
0,0,0,0,0,0,0,0,0,0,0,0,0,0,0,0,904,0,0,0,0,0,941,992,943,0,0,0,0,0,0,0,0,0,0,0,0,0,0,0,0,0,0,0,0,0,0,0,0,0,
0,0,0,0,0,0,0,0,0,0,0,0,0,0,0,0,904,0,0,0,0,0,958,1009,960,0,0,0,0,0,0,0,0,0,0,0,0,0,0,0,0,0,0,0,0,0,0,0,0,0,
0,0,911,912,912,912,912,912,912,913,0,0,0,0,0,0,904,0,0,0,0,0,0,967,968,0,0,0,0,0,0,0,0,0,0,0,0,0,0,0,0,0,0,0,0,0,0,0,942,942,
0,0,928,929,929,929,929,929,929,930,0,0,0,0,0,0,904,0,0,0,0,0,0,984,985,0,0,0,0,0,0,0,0,0,0,0,0,0,0,0,0,0,0,0,0,0,0,0,959,959,
0,0,928,0,0,0,0,0,0,930,0,0,0,0,0,0,904,0,0,0,0,0,0,0,0,0,0,0,0,0,0,0,0,0,0,0,0,0,0,0,0,0,0,0,0,0,0,0,0,0,
0,0,928,0,0,0,0,0,0,930,0,0,0,0,0,0,904,0,0,0,0,0,0,0,0,0,0,0,0,0,0,0,0,0,0,0,0,0,0,0,0,0,0,0,0,965,966,892,893,0,
0,0,928,0,0,0,0,0,0,930,0,0,0,0,0,0,904,0,0,0,0,0,0,0,0,0,0,0,0,0,0,0,0,0,0,0,0,0,0,0,0,0,0,0,907,982,983,908,909,0
</data>
 </layer>
 <objectgroup id="9" name="Object Layer 1">
  <object id="4" x="210.75" y="162" width="42.5" height="60"/>
  <object id="8" x="228" y="222.25" width="9" height="66"/>
  <object id="9" x="210.5" y="289.25" width="43.5" height="60.25"/>
  <object id="13" x="354.75" y="160.75" width="43.75" height="61"/>
  <object id="14" x="372.5" y="221.5" width="8" height="67"/>
  <object id="15" x="355" y="288.25" width="44.25" height="61.75"/>
  <object id="19" x="335.25" y="352.5" width="64" height="13.5"/>
  <object id="20" x="208.25" y="351.25" width="64" height="14.75"/>
  <object id="21" x="275" y="543.75" width="13.75" height="14.25"/>
  <object id="22" x="320" y="543.75" width="14.25" height="15"/>
  <object id="23" x="13.6818" y="624.25" width="11.25" height="15.75"/>
  <object id="24" x="-1.25" y="656" width="16" height="14.5"/>
  <object id="25" x="50.5" y="655.25" width="27.75" height="15.75"/>
  <object id="26" x="40.7727" y="624.227" width="9.75" height="15"/>
  <object id="27" x="77.5" y="640.545" width="20.75" height="15"/>
  <object id="28" x="99.25" y="654.75" width="25.5" height="15.75"/>
  <object id="29" x="126.205" y="640.636" width="20.5" height="14.5227"/>
  <object id="30" x="147.75" y="655.25" width="25.75" height="15.25"/>
  <object id="31" x="174.045" y="624.409" width="36.25" height="15.25"/>
  <object id="32" x="210.364" y="655.205" width="13.25" height="14.25"/>
  <object id="33" x="256.25" y="655.5" width="1.5" height="15"/>
  <object id="34" x="306.5" y="766.5" width="69.75" height="15.5"/>
  <object id="35" x="392.5" y="766.864" width="53.25" height="14.8864"/>
  <object id="36" x="392.5" y="735.25" width="37.25" height="15.25"/>
  <object id="37" x="323" y="734.25" width="53.75" height="16"/>
  <object id="39" x="354" y="704" width="14.125" height="14.25"/>
  <object id="40" x="384" y="703" width="14.75" height="15"/>
  <object id="41" x="192.119" y="576.177" width="15.7784" height="15.7386"/>
  <object id="42" x="112.148" y="576.148" width="15.8352" height="15.7386"/>
  <object id="44" x="32.1363" y="496" width="15.7955" height="15.9773"/>
  <object id="45" x="32.0057" y="576.091" width="15.875" height="15.8239"/>
  <object id="46" x="111.903" y="496.142" width="16.1307" height="15.8864"/>
  <object id="47" x="192.097" y="496.131" width="15.8693" height="15.8977"/>
  <object id="48" x="-0.5" y="-0.5" width="15" height="411"/>
  <object id="49" x="-0.5" y="409.5" width="16" height="87.5"/>
  <object id="51" x="113.5" y="29" width="44.5" height="64.75"/>
  <object id="55" x="158" y="39.75" width="303.25" height="39.5"/>
  <object id="56" x="258.25" y="79.5909" width="27.5" height="30.1591"/>
  <object id="59" x="460.75" y="24" width="20.75" height="38.5"/>
  <object id="60" x="483" y="24.25" width="26" height="55"/>
  <object id="62" x="508.75" y="15.25" width="36.5" height="30.75"/>
  <object id="63" x="545.5" y="14" width="27.5" height="64.25"/>
  <object id="64" x="573.5" y="23" width="19.5" height="39.25"/>
  <object id="65" x="593.75" y="9" width="27.75" height="66"/>
  <object id="67" x="659.25" y="8.5" width="27" height="66.8333"/>
  <object id="75" x="252.667" y="180.75" width="35.1667" height="35.25"/>
  <object id="77" x="319.333" y="180.667" width="34.6667" height="34"/>
  <object id="79" x="254" y="306.667" width="33.6667" height="38.6667"/>
  <object id="80" x="320.583" y="306.667" width="32.0833" height="40"/>
  <object id="82" x="546.667" y="449.333" width="42.3334" height="18.3333"/>
  <object id="85" x="640.583" y="466.667" width="33.0833" height="38.6667"/>
  <object id="87" x="562.667" y="506" width="12" height="152"/>
  <object id="88" x="539.333" y="578.667" width="58" height="37.6667"/>
  <object id="89" x="721" y="478" width="78.333" height="209.333"/>
  <object id="90" x="306" y="640.212" width="140.212" height="0.878785"/>
  <object id="91" x="305.788" y="640.663" width="1.08333" height="141.06"/>
  <object id="93" x="445" y="640.818" width="1.21212" height="125.788"/>
  <object id="94" x="256" y="671" width="2" height="129"/>
  <object id="98" x="674.5" y="327.5" width="125.5" height="38.5"/>
  <object id="99" x="652.5" y="312.5" width="22" height="38.5"/>
  <object id="100" x="625.5" y="329" width="27" height="36.5"/>
  <object id="101" x="605.5" y="315" width="19.5" height="36.5"/>
  <object id="102" x="577" y="329" width="28" height="37"/>
  <object id="103" x="560.5" y="320.5" width="16" height="14.5"/>
  <object id="104" x="477.25" y="352" width="79.75" height="15.5"/>
  <object id="105" x="478.25" y="416" width="94" height="1.25"/>
  <object id="106" x="476.5" y="400" width="2.25" height="15.75"/>
  <object id="108" x="572.25" y="416.25" width="2.5" height="31.5"/>
  <object id="109" x="674.75" y="448.25" width="125" height="0.25"/>
  <object id="110" x="673.5" y="449.5" width="1.5" height="17.25"/>
  <object id="111" x="674" y="506.25" width="0.5" height="101.5"/>
  <object id="112" x="640.833" y="607.5" width="33.1667" height="1.25"/>
  <object id="113" x="597.75" y="607.5" width="10.8333" height="1.5"/>
  <object id="114" x="603.5" y="99" width="85.3333" height="38"/>
  <object id="115" x="721.167" y="98" width="78.8333" height="38.5"/>
  <object id="116" x="596" y="99" width="9.5" height="173"/>
  <object id="117" x="577.5" y="271.5" width="119" height="6"/>
  <object id="118" x="578.5" y="273" width="8.5" height="57.5"/>
  <object id="120" x="754.5" y="160.5" width="45.5" height="65.5"/>
  <object id="123" x="14.5" y="25.75" width="17.5" height="36.5"/>
  <object id="124" x="64.25" y="28.5" width="50.25" height="34"/>
  <object id="127" x="685.5" y="24.5" width="20" height="22"/>
  <object id="128" x="705" y="6.5" width="30" height="68.25"/>
  <object id="130" x="769.5" y="7" width="28.25" height="67"/>
  <object id="131" x="733" y="8" width="39.5" height="23"/>
  <object id="132" x="618.5" y="6.5" width="42" height="26.5"/>
  <object id="150" x="691" y="225" width="91" height="60"/>
  <object id="152" x="447" y="468" width="161.25" height="36.6667"/>
  <object id="154" x="800.205" y="-2.37121" width="25.6667" height="805.667"/>
  <object id="155" x="-22.9962" y="-0.40547" width="22.6667" height="800.667"/>
  <object id="156" x="-1.33335" y="801.167" width="803.667" height="19.667"/>
  <object id="157" x="45.6364" y="736.545" width="101.273" height="62.7273"/>
  <object id="161" x="505.455" y="731.455" width="4.36364" height="36.3636"/>
  <object id="162" x="509.818" y="730.727" width="82" height="4.54545"/>
  <object id="163" x="624" y="731.091" width="48" height="4.18182"/>
  <object id="164" x="704" y="731.273" width="96" height="4.36364"/>
 </objectgroup>
</map>
